X: 113
T: Slievenamon
M:3/4
R:waltz
L:1/8
Z:added by Alf warnock alf0@rogers.com - www.alfwarnock.info/alfs
K:D
A2| "D"A6| B4 A2| D6-|D2 A,2 D2| "D7"F6| G4 A2| "G"B,6-|B,2 E2 D2|
"A7"D4 C2| A,4 B,2| C6| F4 E2| "D"D6| "G"D6| "D"D6| D4 :|
E2|"A"E6| E4 F2| "A7"G6-|G4 G2| "D"G4 F2| D4 E2| F6-|F2 A2 A2|
"E"^G6| E4 F2| "E7"^G6| c4 B2| "A"A6| G2 F2 G2| "A7"E6-|E2 A2 A2|
"D"B4 A2| B4 A2| D6-|D2 A,2 D2| "D7"F4 F2| G4 A2| "G"B,6-|B,2 E2 D2|
"A7"D4 C2| A,4 B,2| C6| F4 E2| "D"D6-|"G"D6| "D"D6-|D6|]

